24x24/apps/bendy-and-the-ink-machine.svg

<svg xmlns="http://www.w3.org/2000/svg" width="24" height="24" version="1.1">
 <g transform="translate(1,1)">
  <path style="opacity:0.2" d="M 16,2.5 C 16,2.9091 15.999,3.2476 16,3.5 16,5.1569 13.761,6.5 11,6.5 8.2386,6.5 6,5.1569 6,3.5 6.0017,3.2516 6,2.9054 6,2.5 2.8213,4.259 1.0049,7.8671 1,11.5 1,17.023 5.4772,21.5 11,21.5 16.523,21.5 21,17.023 21,11.5 20.999,7.8621 19.184,4.26 16,2.5 Z"/>
  <path style="fill:#4f4f4f" d="M 16,2 C 16,2.4091 15.999,2.7476 16,3 16,4.6569 13.761,6 11,6 8.2386,6 6,4.6569 6,3 6.0017,2.7516 6,2.4054 6,2 2.8213,3.759 1.0049,7.3671 1,11 1,16.523 5.4772,21 11,21 16.523,21 21,16.523 21,11 20.999,7.3621 19.184,3.76 16,2 Z"/>
  <path style="opacity:0.2" d="M 7,7.5 C 5,7.5 3.5664,9.5605 3.5664,9.5605 3.1943,10.496 3.0022,11.493 3,12.5 3,16.918 6.5817,20.5 11,20.5 15.418,20.5 19,16.918 19,12.5 18.998,11.74 18.889,10.985 18.674,10.256 18.674,10.256 17,7.5 15,7.5 14,7.4961 11,9.5 11,9.5 11,9.5 8.0039,7.5 7,7.5 Z M 6.9707,10.5 A 2,3 0 0 1 7.9316,10.846 2,3 0 0 1 8.8965,14.453 2,3 0 0 1 8.4492,15.563 3,0.5 0 0 0 7,15.5 3,0.5 0 0 0 5.5508,15.563 2,3 0 0 1 5,13.5 H 7 L 5.4043,11.693 A 2,3 0 0 1 6.9707,10.5 Z M 14.971,10.5 A 2,3 0 0 1 15.932,10.846 2,3 0 0 1 16.896,14.453 2,3 0 0 1 16.449,15.563 3,0.5 0 0 0 15,15.5 3,0.5 0 0 0 13.551,15.563 2,3 0 0 1 13,13.5 H 15 L 13.404,11.693 A 2,3 0 0 1 14.971,10.5 Z M 7,16.5 A 4,1 0 0 0 8,17.16 V 18.744 C 7.6333,18.537 7.2933,18.293 7,18 Z M 15,16.5 V 18 C 14.707,18.291 14.367,18.534 14,18.74 V 17.16 A 4,1 0 0 0 15,16.5 Z M 9,17.365 A 4,1 0 0 0 10,17.467 V 19.412 C 9.6582,19.361 9.3235,19.287 9,19.182 Z M 13,17.365 V 19.168 C 12.676,19.274 12.343,19.356 12,19.408 V 17.467 A 4,1 0 0 0 13,17.365 Z"/>
  <path style="fill:#ffce66" d="M 7,7 C 5,7 3.5664,9.0605 3.5664,9.0605 3.1943,9.996 3.0022,10.993 3,12 3,16.418 6.5817,20 11,20 15.418,20 19,16.418 19,12 18.998,11.24 18.889,10.485 18.674,9.7559 18.674,9.7559 17,7 15,7 14,6.9961 11,9 11,9 11,9 8.0039,7 7,7 Z M 6.9707,10 A 2,3 0 0 1 7.9316,10.346 2,3 0 0 1 8.8965,13.953 2,3 0 0 1 8.4492,15.063 3,0.5 0 0 0 7,15 3,0.5 0 0 0 5.5508,15.063 2,3 0 0 1 5,13 H 7 L 5.4043,11.193 A 2,3 0 0 1 6.9707,10 Z M 14.971,10 A 2,3 0 0 1 15.932,10.346 2,3 0 0 1 16.896,13.953 2,3 0 0 1 16.449,15.063 3,0.5 0 0 0 15,15 3,0.5 0 0 0 13.551,15.063 2,3 0 0 1 13,13 H 15 L 13.404,11.193 A 2,3 0 0 1 14.971,10 Z M 7,16 A 4,1 0 0 0 8,16.66 V 18.244 C 7.6333,18.037 7.2933,17.793 7,17.5 Z M 15,16 V 17.5 C 14.707,17.791 14.367,18.034 14,18.24 V 16.66 A 4,1 0 0 0 15,16 Z M 9,16.865 A 4,1 0 0 0 10,16.967 V 18.912 C 9.6582,18.861 9.3235,18.787 9,18.682 Z M 13,16.865 V 18.668 C 12.676,18.774 12.343,18.856 12,18.908 V 16.967 A 4,1 0 0 0 13,16.865 Z"/>
  <path style="opacity:0.2;fill:#f4f4f7" d="M 7,7 C 5,7 3.5664,9.0605 3.5664,9.0605 3.1943,9.996 3.0022,10.993 3,12 3,12.084 3.0092,12.165 3.0117,12.248 3.0428,11.327 3.2255,10.418 3.5664,9.5605 3.5664,9.5605 5,7.5 7,7.5 8.0039,7.5 11,9.5 11,9.5 11,9.5 14,7.4961 15,7.5 17,7.5 18.674,10.256 18.674,10.256 18.869,10.92 18.965,11.607 18.984,12.299 18.988,12.199 19,12.101 19,12 18.998,11.24 18.889,10.485 18.674,9.7559 18.674,9.7559 17,7 15,7 14,6.9961 11,9 11,9 11,9 8.0039,7 7,7 Z M 5.5801,11.393 A 2,3 0 0 0 5.4043,11.693 L 6.5586,13 H 7 Z M 13.58,11.393 A 2,3 0 0 0 13.404,11.693 L 14.559,13 H 15 Z M 8.9922,13.232 A 2,3 0 0 1 8.8965,13.953 2,3 0 0 1 8.4492,15.063 3,0.5 0 0 0 7,15 3,0.5 0 0 0 5.5508,15.063 2,3 0 0 1 5.0293,13.5 H 5 A 2,3 0 0 0 5.5508,15.563 3,0.5 0 0 1 7,15.5 3,0.5 0 0 1 8.4492,15.563 2,3 0 0 0 8.8965,14.453 2,3 0 0 0 8.9922,13.232 Z M 16.992,13.232 A 2,3 0 0 1 16.896,13.953 2,3 0 0 1 16.449,15.063 3,0.5 0 0 0 15,15 3,0.5 0 0 0 13.551,15.063 2,3 0 0 1 13.029,13.5 H 13 A 2,3 0 0 0 13.551,15.563 3,0.5 0 0 1 15,15.5 3,0.5 0 0 1 16.449,15.563 2,3 0 0 0 16.896,14.453 2,3 0 0 0 16.992,13.232 Z M 7,17.5 V 18 C 7.2933,18.293 7.6333,18.537 8,18.744 V 18.244 C 7.6333,18.037 7.2933,17.793 7,17.5 Z M 15,17.5 C 14.707,17.791 14.367,18.034 14,18.24 V 18.74 C 14.367,18.534 14.707,18.291 15,18 Z M 13,18.668 C 12.676,18.774 12.343,18.856 12,18.908 V 19.408 C 12.343,19.356 12.676,19.274 13,19.168 Z M 9,18.682 V 19.182 C 9.3235,19.287 9.6582,19.361 10,19.412 V 18.912 C 9.6582,18.861 9.3235,18.787 9,18.682 Z"/>
  <path style="opacity:0.1;fill:#f4f4f7" d="M 6,2 C 2.8213,3.759 1.0049,7.3671 1,11 1,11.094 1.0111,11.186 1.0137,11.279 1.0904,7.722 2.8859,4.2232 6,2.5 5.9998,2.3317 6,2.2027 6,2 Z M 16,2 C 16,2.2045 16,2.3327 16,2.5 19.119,4.2239 20.912,7.7161 20.986,11.277 20.989,11.184 21,11.094 21,11 20.999,7.3621 19.184,3.76 16,2 Z M 6,3 C 6.0002,3.1683 6.0009,3.3758 6,3.5 6,5.1569 8.2386,6.5 11,6.5 13.761,6.5 16,5.1569 16,3.5 15.999,3.3738 16,3.1673 16,3 16,4.6569 13.761,6 11,6 8.2386,6 6,4.6569 6,3 Z"/>
 </g>
</svg>

<svg xmlns="http://www.w3.org/2000/svg" width="24" height="24"><path style="opacity:.2" d="M16 2.5v1c0 1.657-2.239 3-5 3s-5-1.343-5-3c.002-.248 0-.595 0-1-3.179 1.759-4.995 5.367-5 9 0 5.523 4.477 10 10 10s10-4.477 10-10c-.001-3.638-1.816-7.24-5-9z" transform="translate(1 1)"/><path style="fill:#4f4f4f" d="M16 2v1c0 1.657-2.239 3-5 3S6 4.657 6 3c.002-.248 0-.595 0-1-3.179 1.759-4.995 5.367-5 9 0 5.523 4.477 10 10 10s10-4.477 10-10c-.001-3.638-1.816-7.24-5-9z" transform="translate(1 1)"/><path style="opacity:.2" d="M7 7.5c-2 0-3.434 2.06-3.434 2.06A8 8 0 0 0 3 12.5a8 8 0 0 0 16 0 8.003 8.003 0 0 0-.326-2.244S17 7.5 15 7.5c-1-.004-4 2-4 2s-2.996-2-4-2zm-.03 3a2 3 0 0 1 .962.346 2 3 0 0 1 .964 3.607 2 3 0 0 1-.447 1.11A3 .5 0 0 0 7 15.5a3 .5 0 0 0-1.45.063A2 3 0 0 1 5 13.5h2l-1.596-1.807A2 3 0 0 1 6.971 10.5zm8.001 0a2 3 0 0 1 .961.346 2 3 0 0 1 .964 3.607 2 3 0 0 1-.447 1.11A3 .5 0 0 0 15 15.5a3 .5 0 0 0-1.449.063A2 3 0 0 1 13 13.5h2l-1.596-1.807a2 3 0 0 1 1.567-1.193zM7 16.5a4 1 0 0 0 1 .66v1.584A4.611 4.611 0 0 1 7 18zm8 0V18a4.613 4.613 0 0 1-1 .74v-1.58a4 1 0 0 0 1-.66zm-6 .865a4 1 0 0 0 1 .102v1.945a6.197 6.197 0 0 1-1-.23zm4 0v1.803a6.202 6.202 0 0 1-1 .24v-1.941a4 1 0 0 0 1-.102z" transform="translate(1 1)"/><path style="fill:#ffce66" d="M7 7C5 7 3.566 9.06 3.566 9.06A8 8 0 0 0 3 12a8 8 0 0 0 16 0 8.004 8.004 0 0 0-.326-2.244S17 7 15 7c-1-.004-4 2-4 2S8.004 7 7 7zm-.03 3a2 3 0 0 1 .962.346 2 3 0 0 1 .964 3.607 2 3 0 0 1-.447 1.11A3 .5 0 0 0 7 15a3 .5 0 0 0-1.45.063A2 3 0 0 1 5 13h2l-1.596-1.807A2 3 0 0 1 6.971 10zm8.001 0a2 3 0 0 1 .961.346 2 3 0 0 1 .964 3.607 2 3 0 0 1-.447 1.11A3 .5 0 0 0 15 15a3 .5 0 0 0-1.449.063A2 3 0 0 1 13 13h2l-1.596-1.807A2 3 0 0 1 14.971 10zM7 16a4 1 0 0 0 1 .66v1.584a4.611 4.611 0 0 1-1-.744zm8 0v1.5a4.613 4.613 0 0 1-1 .74v-1.58a4 1 0 0 0 1-.66zm-6 .865a4 1 0 0 0 1 .102v1.945a6.197 6.197 0 0 1-1-.23zm4 0v1.803a6.202 6.202 0 0 1-1 .24v-1.941a4 1 0 0 0 1-.102z" transform="translate(1 1)"/><path style="opacity:.2;fill:#f4f4f7" d="M7 7C5 7 3.566 9.06 3.566 9.06A8 8 0 0 0 3 12c0 .084.01.165.012.248.03-.921.213-1.83.554-2.688C3.566 9.56 5 7.5 7 7.5c1.004 0 4 2 4 2s3-2.004 4-2c2 0 3.674 2.756 3.674 2.756a8.02 8.02 0 0 1 .31 2.043c.004-.1.016-.198.016-.299a8.004 8.004 0 0 0-.326-2.244S17 7 15 7c-1-.004-4 2-4 2S8.004 7 7 7zm-1.42 4.393a2 3 0 0 0-.176.3L6.56 13H7zm8 0a2 3 0 0 0-.176.3L14.559 13H15zm-4.588 1.839a2 3 0 0 1-.096.721 2 3 0 0 1-.447 1.11A3 .5 0 0 0 7 15a3 .5 0 0 0-1.45.063 2 3 0 0 1-.52-1.563H5a2 3 0 0 0 .55 2.063A3 .5 0 0 1 7 15.5a3 .5 0 0 1 1.45.063 2 3 0 0 0 .447-1.11 2 3 0 0 0 .095-1.221zm8 0a2 3 0 0 1-.096.721 2 3 0 0 1-.447 1.11A3 .5 0 0 0 15 15a3 .5 0 0 0-1.449.063 2 3 0 0 1-.522-1.563H13a2 3 0 0 0 .551 2.063A3 .5 0 0 1 15 15.5a3 .5 0 0 1 1.449.063 2 3 0 0 0 .447-1.11 2 3 0 0 0 .096-1.221zM7 17.5v.5c.293.293.633.537 1 .744v-.5a4.611 4.611 0 0 1-1-.744zm8 0a4.613 4.613 0 0 1-1 .74v.5a4.613 4.613 0 0 0 1-.74zm-2 1.168a6.202 6.202 0 0 1-1 .24v.5a6.202 6.202 0 0 0 1-.24zm-4 .014v.5c.323.105.658.179 1 .23v-.5a6.197 6.197 0 0 1-1-.23z" transform="translate(1 1)"/><path style="opacity:.1;fill:#f4f4f7" d="M6 2c-3.179 1.759-4.995 5.367-5 9 0 .094.011.186.014.279C1.09 7.722 2.886 4.223 6 2.5V2zm10 0v.5c3.119 1.724 4.912 5.216 4.986 8.777.003-.093.014-.183.014-.277-.001-3.638-1.816-7.24-5-9zM6 3v.5c0 1.657 2.239 3 5 3s5-1.343 5-3V3c0 1.657-2.239 3-5 3S6 4.657 6 3z" transform="translate(1 1)"/></svg>
